Yosa-Max-Dark/actions/22x22/cursor-arrow.svg

<?xml version="1.0" encoding="UTF-8"?>
<svg id="svg4" version="1.1" viewBox="0 0 22 22" xmlns="http://www.w3.org/2000/svg">
 <g id="g818" transform="translate(-3,-2.0000002)">
  <path id="path5" class="ColorScheme-Text" d="m9.9999999 6.0000004 0.015625 11.535156 2.322266-2.279297 0.4375-0.43164 0.238281 0.580078 1.8925781 4.595703 1.460937-0.671875-1.982421-4.548828-0.246094-0.566406 0.59375-0.05664 3.267578-0.310547z" style="fill:#dfdfdf"/>
  <path id="path814" d="m10.015625 17.535156 7.984375-3.689452-4.434978-0.823282-2.565022 2.515695s-0.100827 0.272018-0.984375 1.997039z" style="fill:#dfdfdf"/>
 </g>
</svg>

<?xml version="1.0" encoding="UTF-8" standalone="no"?>
<svg
   xmlns:dc="http://purl.org/dc/elements/1.1/"
   xmlns:cc="http://creativecommons.org/ns#"
   xmlns:rdf="http://www.w3.org/1999/02/22-rdf-syntax-ns#"
   xmlns:svg="http://www.w3.org/2000/svg"
   xmlns="http://www.w3.org/2000/svg"
   xmlns:sodipodi="http://sodipodi.sourceforge.net/DTD/sodipodi-0.dtd"
   xmlns:inkscape="http://www.inkscape.org/namespaces/inkscape"
   viewBox="0 0 22 22"
   version="1.1"
   id="svg4"
   sodipodi:docname="edit-select.svg"
   inkscape:version="0.92.2 5c3e80d, 2017-08-06">
  <sodipodi:namedview
     pagecolor="#ffffff"
     bordercolor="#666666"
     borderopacity="1"
     objecttolerance="10"
     gridtolerance="10"
     guidetolerance="10"
     inkscape:pageopacity="0"
     inkscape:pageshadow="2"
     inkscape:window-width="640"
     inkscape:window-height="480"
     id="namedview7"
     showgrid="false"
     inkscape:zoom="20.272727"
     inkscape:cx="11"
     inkscape:cy="11"
     inkscape:current-layer="svg4" />
  <metadata
     id="metadata10">
    <rdf:RDF>
      <cc:Work
         rdf:about="">
        <dc:format>image/svg+xml</dc:format>
        <dc:type
           rdf:resource="http://purl.org/dc/dcmitype/StillImage" />
        <dc:title />
      </cc:Work>
    </rdf:RDF>
  </metadata>
  <defs
     id="defs8" />
  <g
     transform="translate(-3,-2.0000002)"
     id="g818">
    <path
       inkscape:connector-curvature="0"
       style="opacity:1;fill:#dfdfdf;fill-opacity:1"
       class="ColorScheme-Text"
       d="m 9.9999999,6.0000004 0.015625,11.5351556 2.322266,-2.279297 0.4375,-0.43164 0.238281,0.580078 L 14.90625,20 16.367187,19.328125 14.384766,14.779297 14.138672,14.212891 14.732422,14.156251 18,13.845704 Z"
       id="path5" />
    <path
       inkscape:connector-curvature="0"
       id="path814"
       d="M 10.015625,17.535156 18,13.845704 13.565022,13.022422 11,15.538117 c 0,0 -0.100827,0.272018 -0.984375,1.997039 z"
       style="fill:#dfdfdf;fill-opacity:1;stroke:none;stroke-width:1px;stroke-linecap:butt;stroke-linejoin:miter;stroke-opacity:1" />
  </g>
</svg>
